media/costumes/8-glow.svg

<svg width="63" height="74" xmlns="http://www.w3.org/2000/svg"><path fill="#0CC" d="M62.015 50.91c-.01.15-.03.3-.06.45-.29 2.04-1.07 3.82-2.4 6.39-2.72 5.41-7.08 9.65-12.96 12.6-4.45 2.23-9.01 3.44-13.56 3.62-.62.02-1.16.03-1.7.03-14.81 0-22.99-6.97-27.24-12.82a10.84 10.84 0 0 1-1.68-3.45C.775 54.24.045 50.77.245 47.39c.08-1.42.33-3.02.78-4.91.02-1.42.32-2.82.88-4.13.6-1.41 1.25-2.75 1.94-4.03-1-1.26-1.82-2.63-2.45-4.1l-.09-.21c-1.74-4.27-1.74-8.78 0-13.05.03-.08.07-.16.1-.23 2.07-4.75 5.68-8.78 10.74-11.96C17.005 1.71 21.825.1 26.465 0h5.08c5.13 0 9.78 1.07 13.82 3.19 5.76 3 9.68 7.81 11.31 13.91.67 2.41 1.29 5.58.32 8.96-.18.68-.4 1.34-.65 1.99 5.06 5.4 6.22 10.82 6.18 14.77.03 1.3-.02 3.48-.51 8.09z"/><path fill="#FFF" d="M51.516 42.891c.057 1.234-.088 3.525-.439 6.873-.061.412-.5 1.409-1.32 2.995-1.643 3.29-4.34 5.874-8.092 7.755-3.05 1.527-6.069 2.35-9.061 2.467-8.854.295-15.393-2.463-19.615-8.269 0-.176-.03-.38-.088-.616-1.231-2.227-1.789-4.25-1.671-6.068.058-1.113.381-2.727.968-4.838a2.59 2.59 0 0 1-.176-.527c2.052-4.809 4.631-8.357 7.74-10.645-4.398-1.523-7.155-3.576-8.269-6.156-.646-1.584-.646-3.167 0-4.75 1.173-2.697 3.343-5.043 6.509-7.037 3.167-1.992 6.069-3.02 8.709-3.078h4.838c3.342 0 6.245.646 8.708 1.938 3.048 1.586 4.983 3.936 5.806 7.049.408 1.47.527 2.498.352 3.084-.822 2.996-2.963 5.64-6.422 7.931.704.294 1.641.705 2.814 1.233.881.236 2.053.734 3.52 1.498 3.576 2.936 5.306 5.989 5.189 9.161zm-6.066 6.104c.467-2.756.701-4.514.701-5.277 0-2.345-.791-4.223-2.369-5.629-2.339-1.993-6.196-3.343-11.574-4.047a11.27 11.27 0 0 0-1.491-.879c-1.053-.117-1.727-.146-2.018-.088-2.34.293-4.794 1.906-7.365 4.838-2.866 3.225-4.298 6.451-4.298 9.676 0 3.46 1.577 6.188 4.735 8.18 2.748 1.76 5.963 2.639 9.646 2.639 1.111 0 2.164-.088 3.157-.264 1.987-.176 4.15-1.172 6.489-2.99 2.574-1.994 4.035-4.048 4.387-6.159zm-5.545-30.41c-.646-.885-1.847-1.697-3.606-2.436-1.759-.736-3.254-1.076-4.485-1.019-.998.06-2.287.206-3.87.442-.471.118-1.643.473-3.519 1.062-1.291.473-2.728 1.389-4.311 2.744-1.877 1.595-2.757 2.953-2.639 4.074.352 3.305 3.636 5.017 9.852 5.135 2.814-.059 5.102-.354 6.861-.885.937-.236 2.08-.59 3.43-1.062 2.169-1.416 3.255-3.157 3.255-5.225 0-1.001-.324-1.946-.968-2.83z"/></svg>

<svg version="1.1" width="63" height="74" xmlns="http://www.w3.org/2000/svg" xmlns:xlink="http://www.w3.org/1999/xlink">
  <!-- Exported by Scratch - http://scratch.mit.edu/ -->
  <g id="ID0.16788979899138212">
    <g id="ID0.4447451294399798">
      <g id="ID0.44610542384907603">
        <path id="ID0.3700250615365803" fill="#00CCCC" d="M 62.015 50.910 C 62.005 51.060 61.985 51.210 61.955 51.360 C 61.665 53.400 60.885 55.180 59.555 57.750 C 56.835 63.160 52.475 67.400 46.595 70.350 C 42.145 72.580 37.585 73.790 33.035 73.970 C 32.415 73.990 31.875 74 31.335 74 C 16.525 74 8.345 67.030 4.095 61.180 C 3.325 60.130 2.765 58.960 2.415 57.730 C 0.775 54.240 0.045 50.770 0.245 47.390 C 0.325 45.970 0.575 44.370 1.025 42.480 C 1.045 41.060 1.345 39.660 1.905 38.350 C 2.505 36.940 3.155 35.600 3.845 34.320 C 2.845 33.060 2.025 31.690 1.395 30.220 C 1.365 30.150 1.335 30.080 1.305 30.010 C -0.435 25.740 -0.435 21.230 1.305 16.960 C 1.335 16.880 1.375 16.800 1.405 16.730 C 3.475 11.980 7.085 7.950 12.145 4.770 C 17.005 1.710 21.825 0.100 26.465 0 L 31.545 0 C 36.675 0 41.325 1.070 45.365 3.190 C 51.125 6.190 55.045 11 56.675 17.100 C 57.345 19.510 57.965 22.680 56.995 26.060 C 56.815 26.740 56.595 27.400 56.345 28.050 C 61.405 33.450 62.565 38.870 62.525 42.820 C 62.555 44.120 62.505 46.300 62.015 50.910 Z "/>
      </g>
    </g>
    <g id="ID0.7900457535870373">
      <path id="ID0.5748317488469183" fill="#FFFFFF" d="M 51.516 42.891 C 51.573 44.125 51.428 46.416 51.077 49.764 C 51.016 50.176 50.577 51.173 49.757 52.759 C 48.114 56.049 45.417 58.633 41.665 60.514 C 38.615 62.041 35.596 62.864 32.604 62.981 C 23.750 63.276 17.211 60.518 12.989 54.712 C 12.989 54.536 12.959 54.332 12.901 54.096 C 11.670 51.869 11.112 49.846 11.230 48.028 C 11.288 46.915 11.611 45.301 12.198 43.190 C 12.138 43.073 12.080 42.897 12.022 42.663 C 14.074 37.854 16.653 34.306 19.762 32.018 C 15.364 30.495 12.607 28.442 11.493 25.862 C 10.847 24.278 10.847 22.695 11.493 21.112 C 12.666 18.415 14.836 16.069 18.002 14.075 C 21.169 12.083 24.071 11.055 26.711 10.997 C 27.296 10.997 28.206 10.997 29.438 10.997 C 30.141 10.997 30.845 10.997 31.549 10.997 C 34.891 10.997 37.794 11.643 40.257 12.935 C 43.305 14.521 45.240 16.871 46.063 19.984 C 46.471 21.454 46.590 22.482 46.415 23.068 C 45.593 26.064 43.452 28.708 39.993 30.999 C 40.697 31.293 41.634 31.704 42.807 32.232 C 43.688 32.468 44.860 32.966 46.327 33.730 C 49.903 36.666 51.633 39.719 51.516 42.891 Z M 45.450 48.995 C 45.917 46.239 46.151 44.481 46.151 43.718 C 46.151 41.373 45.360 39.495 43.782 38.089 C 41.443 36.096 37.586 34.746 32.208 34.042 C 31.798 33.749 31.301 33.456 30.717 33.163 C 29.664 33.046 28.990 33.017 28.699 33.075 C 26.359 33.368 23.905 34.981 21.334 37.913 C 18.468 41.138 17.036 44.364 17.036 47.589 C 17.036 51.049 18.613 53.777 21.771 55.769 C 24.519 57.529 27.734 58.408 31.417 58.408 C 32.528 58.408 33.581 58.320 34.574 58.144 C 36.561 57.968 38.724 56.972 41.063 55.154 C 43.637 53.160 45.098 51.106 45.450 48.995 Z M 39.905 18.585 C 39.259 17.700 38.058 16.888 36.299 16.149 C 34.540 15.413 33.045 15.073 31.814 15.130 C 30.816 15.190 29.527 15.336 27.944 15.572 C 27.473 15.690 26.301 16.045 24.425 16.634 C 23.134 17.107 21.697 18.023 20.114 19.378 C 18.237 20.973 17.357 22.331 17.475 23.452 C 17.827 26.757 21.111 28.469 27.327 28.587 C 30.141 28.528 32.429 28.233 34.188 27.702 C 35.125 27.466 36.268 27.112 37.618 26.640 C 39.787 25.224 40.873 23.483 40.873 21.415 C 40.873 20.414 40.549 19.469 39.905 18.585 Z "/>
    </g>
  </g>
</svg>
